X:1
T:[ID 1-40]
T:[ID 1-40]
T:Bezeichnung standardisiert: Menuett Men\"uet
T:Urheber unbekannt Datum in der hier transkribierten schriftlichen Quelle: vermutlich vor 1767
C:Urheber unbekannt
C:Datum in der hier transkribierten schriftlichen Quelle: vermutlich vor 1767
L:1/8
M:none
K:D
V:1 treble 
V:1
 d2 A2 F2 | D2 f4 | e2 c2 A2 | C2 g4 | f2 agaf | e2 de c2 | BdcBA^G | A6 :: a2 fe^dc | B2 a4 | %10
 g2 edcB | A2 g4 | fagfed | c2 BA d2 | egfedc | d6 :| %16

